svg/color/dashon.svg

<svg width="40" height="40" viewBox="0 0 40 40" fill="none" xmlns="http://www.w3.org/2000/svg">
<g clip-path="url(#clip0_820_3939)">
<path d="M20 0C31.0457 0 40 8.9543 40 20C40 31.0457 31.0457 40 20 40C8.95431 40 7.90517e-06 31.0457 0 20C6.58765e-07 8.95431 8.95431 1.97595e-06 20 0Z" fill="#FFD6CE"/>
<path d="M26 6C30.4183 6 34 9.58172 34 14V26C34 30.4183 30.4183 34 26 34H14C9.58172 34 6 30.4183 6 26V14C6 9.58172 9.58172 6 14 6H26Z" fill="#FF3008"/>
<g clip-path="url(#clip1_820_3939)">
<path d="M29.2257 17.0074C28.7918 16.1924 28.1438 15.5112 27.3514 15.0372C26.559 14.5632 25.6524 14.3143 24.729 14.3174H10.4865C10.3901 14.3182 10.296 14.3474 10.216 14.4014C10.136 14.4554 10.0738 14.5318 10.0369 14.621C10.0001 14.7101 9.99042 14.8082 10.009 14.9029C10.0276 14.9975 10.0737 15.0846 10.1415 15.1532L13.2449 18.2749C13.3806 18.4112 13.5418 18.5194 13.7195 18.5932C13.8971 18.667 14.0875 18.7049 14.2799 18.7049H24.3207C24.6642 18.7015 24.9949 18.8346 25.2402 19.0751C25.4855 19.3155 25.6252 19.6435 25.6286 19.987C25.632 20.3304 25.4989 20.6612 25.2585 20.9065C25.018 21.1518 24.69 21.2915 24.3465 21.2949H17.4249C17.3283 21.2956 17.2341 21.3247 17.154 21.3786C17.0739 21.4325 17.0115 21.5089 16.9746 21.5981C16.9377 21.6873 16.9279 21.7854 16.9465 21.8802C16.9651 21.9749 17.0112 22.0621 17.079 22.1307L20.1832 25.2532C20.3188 25.3896 20.4801 25.4978 20.6577 25.5716C20.8354 25.6454 21.0259 25.6834 21.2182 25.6832H24.349C28.4215 25.6832 31.5024 21.3291 29.2257 17.0057" fill="white"/>
</g>
</g>
<defs>
<clipPath id="clip0_820_3939">
<rect width="40" height="40" fill="white"/>
</clipPath>
<clipPath id="clip1_820_3939">
<rect width="20" height="20" fill="white" transform="translate(10 10)"/>
</clipPath>
</defs>
</svg>

<svg xmlns="http://www.w3.org/2000/svg" width="40" height="40" fill="none" viewBox="0 0 40 40"><g clip-path="url(#dashon_svg-a)"><path fill="#FFD6CE" d="M20 0c11.046 0 20 8.954 20 20s-8.954 20-20 20S0 31.046 0 20 8.954 0 20 0"/><path fill="#FF3008" d="M26 6a8 8 0 0 1 8 8v12a8 8 0 0 1-8 8H14a8 8 0 0 1-8-8V14a8 8 0 0 1 8-8z"/><g clip-path="url(#dashon_svg-b)"><path fill="#fff" d="M29.226 17.007a5.08 5.08 0 0 0-4.497-2.69H10.487a.49.49 0 0 0-.345.836l3.103 3.122a1.46 1.46 0 0 0 1.035.43h10.04a1.295 1.295 0 1 1 .026 2.59h-6.921a.492.492 0 0 0-.346.836l3.104 3.122a1.46 1.46 0 0 0 1.035.43h3.131c4.073 0 7.153-4.354 4.877-8.677"/></g></g><defs><clipPath id="dashon_svg-a"><path fill="#fff" d="M0 0h40v40H0z"/></clipPath><clipPath id="dashon_svg-b"><path fill="#fff" d="M10 10h20v20H10z"/></clipPath></defs></svg>
